X:1
T:The Young Man Who Wouldn't Hoe Corn
M:4/4
L:1/4
K:C
 G| c A/2A/2 A G/2G/2| c A/2A/2 A G/2G/2| c/2c/2 A A G| c/2c/2 d e|\
 z/2 c/2| e g e3/2 c/2| d e A z/2 c/2| A e d c| A G A||
